X:1
T:Title
%%score { ( 1 3 ) | ( 2 4 ) }
L:1/8
M:4/4
K:Ab
V:1 treble nm="Grand Piano"
V:3 treble 
V:2 bass 
V:4 bass 
V:1
 z4 z2[Q:1/4=100] [CA][DB] | [Ec][CE][_C=D][=CE] [_DF][CE][A,C][CE] | %2
 [CA][CA][EA][EG] [DF]2 [FB][Fc] | [Fd][Ec][DB][=DA] GFGA | B6 [CA][DB] | %5
 [Ec][CE][_C=D][=CE] [_DF][CE][A,C][CE] | [CA][CA][EA][EG] [DF]2 [FB][Fd] | cAGA BFGE | %8
[M:3/4] [CA]6 |[M:1/4] cd |[M:4/4] z c3- c2 z2 | z F3- F2 z2 | z2 B2 z4 |[M:3/4] B6 |[M:1/4] cd | %15
[M:4/4] z c3- c2 z2 | z F3- F2 z2 | c2 [EA]2 z4 |[M:3/4] [CEA]6 |] %19
V:2
 z4 z2 [A,,A,][A,,A,] | [A,,A,][A,,A,][A,,A,][A,,A,] [A,,A,][A,,A,][A,,E,][A,,E,] | %2
 [A,,E,][A,,E,][C,A,][C,A,] [D,A,]2 [D,B,][C,=A,] | %3
 [B,,B,][B,,B,][B,,B,][B,,B,] [E,B,E][A,B,=D][G,B,E][F,A,D] | [E,G,D]6 [A,,A,][A,,A,] | %5
 [A,,A,][A,,A,][A,,A,][A,,A,] [A,,A,][A,,A,][A,,E,][A,,E,] | %6
 [A,,E,][A,,E,][C,A,][C,A,] [D,A,]2 [D,A,][D,A,] | %7
 [E,A,E][E,CE][E,B,E][E,CE] [E,G,D][E,A,D][E,B,D][E,G,D] |[M:3/4] [A,,E,A,]6 | %9
[M:1/4][K:treble] AB |[M:4/4] z A3- A2 z2 | z[K:bass] D3- D2[K:treble] z2 | z2[K:bass] E2 z4 | %13
[M:3/4] [E,G,E]6 |[M:1/4][K:treble] AB |[M:4/4] z A3- A2 z2 | z[K:bass] D3- D2[K:treble] z2 | %17
 E2 z2 z4 |[M:3/4] A,,6 |] %19
V:3
 x8 | x8 | x8 | x8 | x8 | x8 | x8 | x8 |[M:3/4] x6 |[M:1/4] x2 |[M:4/4] .e2 EE ECAE | %11
 .G2 A,A, A,A,GA | B2 z G, [=DB]2 [DB]2 |[M:3/4] x6 |[M:1/4] x2 |[M:4/4] .e2 EE ECAE | %16
 .G2 A,A, A,A,Bd | z A,CC [B,EG]2 [DEB]2 |[M:3/4] x6 |] %19
V:4
 x8 | x8 | x8 | x8 | x8 | x8 | x8 | x8 |[M:3/4] x6 |[M:1/4][K:treble] x2 |[M:4/4] .c2 A,A, A,A,CC | %11
 .E2[K:bass] D,D, D,D,[K:treble]EF | E2[K:bass] [E,G,]E, [B,,F,]2 [B,,A,]2 |[M:3/4] x6 | %14
[M:1/4][K:treble] x2 |[M:4/4] .c2 A,A, A,A,CC | .E2[K:bass] D,D, D,D,[K:treble]DF | %17
 [E,A,]E,E,E, E,2 E,2 |[M:3/4] x6 |] %19

